X:1
T:Vaagn op!
T:Vaagn op!
T:(Denne Melodi er bleven kaldet Salmemelodiernes Konge.)
T:Joh. D. Behrens
T:Ph. Nicolai
C:Joh. D. Behrens
Z:Ph. Nicolai
%%score [ 1 2 3 4 ]
L:1/8
Q:1/4=92
M:3/2
K:Eb
V:1 treble-8 nm="T1"
V:2 treble-8 nm="T2"
V:3 bass nm="B1"
V:4 bass nm="B2"
V:1
!mf!"^Maestoso" E4 G4 | B6 B2 B2 B2 | c4 B4 z2!f! B2 | e2 d2 e2 g2 f2 e2 | f4 B4 z2 B2 | %5
w: 1.Zi- ons|Væg- ter hæ- ver|Rø- sten: Vaagn|op! der blin- ker Lyn i|Ø- sten, vaagn|
w: Mid- nats|Mulm dig ru- ger|o- ver, men|Her- rens Ti- me slaar; hvo|so- ver? I|
 e2 B2 c2 G2 A2 F2 |1 E4 :|2[M:2/2] E4 z2!mf! B2 ||[M:3/2] !>!B6 A2 G2 F2 |[M:2/2] E4 z2 B2 | %10
w: op, Guds Stad, Je- ru- sa-|lem!|\-frem! Se,|Her- ren kom- mer|ned! Stat|
w: klo- ge Jom- fru- er her \-|||||
[M:3/2] !>!B6 A2 G2 F2 |[M:2/2] E4 F2 G2 |[M:3/2] A4 G4 B4 |!<(! c2 d2!<)! e4!f! g4 | %14
w: op, tag Lam- pen|med! Lad den|bræn- de! Paa|Je- su Bud stat|
w: ||||
 f2 f2 e4 z2 B2 | e2 B2 c2 G2!>(! A2 F2!>)! | !fermata!E4 |] %17
w: op, gak ud! han|hjem dig fø- rer til din|Gud.|
w: |||
V:2
!mf! E4 E4 | F6 G2 F2 G2 | A4 G4 z2!f! B2 | B2 B2 B2 e2 d2 e2 | c4 B4 z2 B2 | B2 G2 G2 E2 F2 D2 |1 %6
w: 1.Zi- ons|Væg- ter hæ- ver|Rø- sten: Vaagn|op! der blin- ker Lyn i|Ø- sten, vaagn|op, Guds Stad, Je- ru- sa-|
w: Mid- nats|Mulm dig ru- ger|o- ver, men|Her- rens Ti- me slaar; hvo|so- ver? I|klo- ge Jom- fru- er her \-|
 E4 :|2[M:2/2] E4 z2!mf! F2 ||[M:3/2] !>!G6 F2 E2 D2 |[M:2/2] E4 z2 G2 |[M:3/2] !>!F6 A2 G2 F2 | %11
w: lem!|\-frem! Se,|Her- ren kom- mer|ned! Stat|op, tag Lam- pen|
w: |||||
[M:2/2] E4 D2 E2 |[M:3/2] (E2 F2) E4 G4 |!<(! A2 B2!<)! B4!f! e4 | e2 d2 B4 z2 G2 | %15
w: med! Lad den|bræn- * de! Paa|Je- su Bud stat|op, gak ud! han|
w: ||||
 E2 G2 A2 G2!>(! F2 F2!>)! | !fermata!E4 |] %17
w: hjem dig fø- rer til din|Gud.|
w: ||
V:3
!mf! E,4 E,4 | D,6 E,2 F,2 E,2 | E,4 E,4 z2!f! B,2 | B,2 B,2 B,2 B,2 B,2 B,2 | %4
w: 1.Zi- ons|Væg- ter hæ- ver|Rø- sten: Vaagn|op! der blin- ker Lyn i|
w: Mid- nats|Mulm dig ru- ger|o- ver, men|Her- rens Ti- me slaar; hvo|
 (B,2 =A,2) B,4 z2 B,2 | G,2 G,2 E,2 E,2 C,2 B,,2 |1 E,4 :|2[M:2/2] E,4 z2!mf! D,2 || %8
w: Ø- * sten, vaagn|op, Guds Stad, Je- ru- sa-|lem!|\-frem! Se,|
w: so- * ver? I|klo- ge Jom- fru- er her \-|||
[M:3/2] !>!E,6 C,2 B,,2 B,,2 |[M:2/2] E,4 z2 E,2 |[M:3/2] !>!D,6 (E,F,) E,2 B,,2 | %11
w: Her- ren kom- mer|ned! Stat|op, tag * Lam- pen|
w: |||
[M:2/2] E,4 B,,2 E,2 |[M:3/2] (C,2 B,,2) E,4 E,4 |!<(! A,2 A,2!<)! G,4!f! G,4 | C2 B,2 G,4 z2 E,2 | %15
w: med! Lad den|bræn- * de! Paa|Je- su Bud stat|op, gak ud! han|
w: ||||
 G,2 E,2 E,2 E,2!>(! F,2 D,2!>)! | !fermata!E,4 |] %17
w: hjem dig fø- rer til din|Gud.|
w: ||
V:4
!mf! E,4 C,4 | B,,6 E,2 D,2 E,2 | A,,4 E,4 z2!f! B,2 | G,2 B,2 G,2 E,2 B,,2 G,2 | F,4 B,4 z2 B,2 | %5
w: 1.Zi- ons|Væg- ter hæ- ver|Rø- sten: Vaagn|op! der blin- ker Lyn i|Ø- sten, vaagn|
w: Mid- nats|Mulm dig ru- ger|o- ver, men|Her- rens Ti- me slaar; hvo|so- ver? I|
 E,2 E,2 C,2 C,2 A,,2 B,,2 |1 E,4 :|2[M:2/2] E,4 z2!mf! B,,2 ||[M:3/2] !>!E,6 A,,2 B,,2 B,,2 | %9
w: op, Guds Stad, Je- ru- sa-|lem!|\-frem! Se,|Her- ren kom- mer|
w: klo- ge Jom- fru- er her \-||||
[M:2/2] E,4 z2 E,2 |[M:3/2] !>!B,,6 (C,D,) E,2 B,,2 |[M:2/2] E,4 B,,2 E,2 | %12
w: ned! Stat|op, tag * Lam- pen|med! Lad den|
w: |||
[M:3/2]"_\n\n\n\n2.Zion Vægterraabet hører, en himmelsk Glæde Hjertet rører, \nhun vaagner og staar frejdig op.\nHerren kommer, stor og prægtig, af Naade stærk, af Sandhed mægtig; \nnu rinder hendes Stjerne op.\nAk, kom, du Krone skjøn, min Jesu, du Guds Søn!\nHosianna! Vi følge med!\ndu har bered en Bolig os i Evighed!\n" (C,2 B,,2) E,4 E,4 | %13
w: bræn- * de! Paa|
w: |
!<(! A,2 F,2!<)! E,4!f! C,4 | A,,2 B,,2 E,4 z2 E,2 | C,2 E,2 A,,2 C,2!>(! F,2 B,,2!>)! | %16
w: Je- su Bud stat|op, gak ud! han|hjem dig fø- rer til din|
w: |||
 !fermata!E,4 |] %17
w: Gud.|
w: |

